!!!COM: Gabrieli, Giovanni
!!!CDT: ~1555///-1612/08//
!!!OTL: O magnum mysterium
!!!ODT: 1587///
**kern	**kern	**kern	**kern	**kern	**kern	**kern	**kern
=1-	=1-	=1-	=1-	=1-	=1-	=1-	=1-
*clefF4	*clefGv2	*clefGv2	*clefG2	*clefGv2	*clefG2	*clefG2	*clefG2
*k[]	*k[]	*k[]	*k[]	*k[]	*k[]	*k[]	*k[]
*met(C)	*met(C)	*met(C)	*met(C)	*met(C)	*met(C)	*met(C)	*met(C)
*M4/4	*M4/4	*M4/4	*M4/4	*M4/4	*M4/4	*M4/4	*M4/4
*MM132	*MM132	*MM132	*MM132	*MM132	*MM132	*MM132	*MM132
1rr	1rr	1rr	1rr	2r	2r	2r	1g
.	.	.	.	[2G/	[2d/	[2b-\	.
=2	=2	=2	=2	=2	=2	=2	=2
1rr	1rr	1rr	1rr	2G/]	2d/]	2b-\]	1dd
.	.	.	.	2d\	2f/	2a/	.
=3	=3	=3	=3	=3	=3	=3	=3
1rr	1rr	1rr	1rr	2.G/	4d/	2g/	2.b\
.	.	.	.	.	4d/	.	.
.	.	.	.	.	2g/	2d/	.
.	.	.	.	4G/	.	.	4b\
=4	=4	=4	=4	=4	=4	=4	=4
1rr	1rr	1rr	1rr	4.c\	4g/	8e/L	2.cc\
.	.	.	.	.	.	8f/J	.
.	.	.	.	.	2e/	2g/	.
.	.	.	.	8B-\	.	.	.
.	.	.	.	4A/	.	.	.
.	.	.	.	4A/	4c/	4f#/	4cc\
=5	=5	=5	=5	=5	=5	=5	=5
2r	1G	2r	2r	2G/	2d/	2g/	2b\
[2GG/	.	[2B-\	[2d/	2r	2r	2r	2r
=6	=6	=6	=6	=6	=6	=6	=6
2GG/]	1d	2B-\]	2d/]	1rr	1rr	1rr	1rr
2D\	.	2A/	2f/	.	.	.	.
=7	=7	=7	=7	=7	=7	=7	=7
2.GG/	2.B\	2G/	4d/	1rr	1rr	1rr	1rr
.	.	.	4d/	.	.	.	.
.	.	[2d\	[2g/	.	.	.	.
4GG/	4B\	.	.	.	.	.	.
=8	=8	=8	=8	=8	=8	=8	=8
4.G\	8B\L	4d\]	2g/]	1rr	1rr	1rr	1rr
.	8c\J	.	.	.	.	.	.
.	2d\	2B-\	.	.	.	.	.
8F\	.	.	.	.	.	.	.
4E-\	.	.	2g/	.	.	.	.
4E-\	4c\	4G/	.	.	.	.	.
=9	=9	=9	=9	=9	=9	=9	=9
2D\	2d\	2A/	2f#/	1rr	1rr	1rr	1rr
2r	2r	2r	2r	.	.	.	.
=10	=10	=10	=10	=10	=10	=10	=10
2r	2r	2r	2r	1G	1B-	1d	1g
[2GG/	[2D/	[2G/	[2d/	.	.	.	.
=11	=11	=11	=11	=11	=11	=11	=11
2GG/]	1D]	2G/]	2d/]	2B-\	1d	2g/	1dd
2D\	.	4F/	2f/	2A/	.	4a/	.
.	.	[4D/	.	.	.	4f/	.
=12	=12	=12	=12	=12	=12	=12	=12
2.GG/	2G/	4D/]	4d/	2.G/	2.d/	2.g/	2.b\
.	.	2D/	4d/	.	.	.	.
.	4D/	.	4.g/	.	.	.	.
4GG/	4d\	[4G/	.	4D/	4d/	4g/	4b\
.	.	.	8f/	.	.	.	.
=13	=13	=13	=13	=13	=13	=13	=13
4.C/	2G/	8G/L]	2.e/	8E/L	2.c/	2g/	2.cc\
.	.	8F/J	.	8F/J	.	.	.
.	.	2E/	.	2G/	.	.	.
8BB-/	.	.	.	.	.	.	.
4AA/	2A/	.	.	.	.	2r	.
4AA/	.	4C/	4a/	4F#/	4c/	.	4cc\
=14	=14	=14	=14	=14	=14	=14	=14
1GG	1B	1D	1d	2G/	2g/	4r	2b\
.	.	.	.	.	.	4d/	.
.	.	.	.	4r	4r	[2g/	4r
.	.	.	.	4G/	4d/	.	4b\
=15	=15	=15	=15	=15	=15	=15	=15
1rr	1rr	1rr	1rr	4c\	4e/	4g/]	4cc\
.	.	.	.	4c\	4e/	4a/	4cc\
.	.	.	.	[2B-\	[2f/	[2b-\	[2dd\
=16	=16	=16	=16	=16	=16	=16	=16
1rr	1rr	1rr	1rr	4B-\]	4f/]	4b-\]	4dd\]
.	.	.	.	4B-\	4f/	4b-\	4dd\
.	.	.	.	2F/	4f/	4.a/	2cc\
.	.	.	.	.	[4f/	.	.
.	.	.	.	.	.	16g/LL	.
.	.	.	.	.	.	16f/JJ	.
=17	=17	=17	=17	=17	=17	=17	=17
1rr	1rr	1rr	1rr	2c\	4f/]	2g/	2.cc\
.	.	.	.	.	4e/	.	.
.	.	.	.	2G/	2d/	[2g/	.
.	.	.	.	.	.	.	4b-\
=18	=18	=18	=18	=18	=18	=18	=18
1rr	1rr	2r	1rr	1A	4c#/	4g/]	1a
.	.	.	.	.	2d/	4f/	.
.	.	4r	.	.	.	2e/	.
.	.	[4A/	.	.	4c#/	.	.
=19	=19	=19	=19	=19	=19	=19	=19
4r	4r	4A/]	4r	2D/	2d/	2f#/	2a/
4D\	4A/	2d\	4f#/	.	.	.	.
4G\	4B\	.	4g/	2r	2r	2r	2r
4G\	4B\	4e\	4g/	.	.	.	.
=20	=20	=20	=20	=20	=20	=20	=20
2.F\	2.c\	2.f\	2.a/	1rr	1rr	1rr	1rr
4F\	4c\	4f\	4a/	.	.	.	.
=21	=21	=21	=21	=21	=21	=21	=21
2BB-/	4B-\	4.d\	2f/	1rr	1rr	1rr	1rr
.	2B-\	.	.	.	.	.	.
.	.	16c\LL	.	.	.	.	.
.	.	16B-\JJ	.	.	.	.	.
2F\	.	2c\	[2f/	.	.	.	.
.	4A/	.	.	.	.	.	.
=22	=22	=22	=22	=22	=22	=22	=22
2C/	2G/	2.c\	4f/]	1rr	1rr	1rr	2r
.	.	.	4e-/	.	.	.	.
[2D\	4F#/	.	2d/	.	.	.	4r
.	[4G/	4B-\	.	.	.	.	4dd\
=23	=23	=23	=23	=23	=23	=23	=23
2D\]	4G/]	2A/	2d/	1rr	4r	2r	4dd\
.	4F#/	.	.	.	4d/	.	4dd\
4GG/	2G/	2G/	4r	.	4d/	4r	4.b-\
4G\	.	.	4d/	.	4d/	4g/	.
.	.	.	.	.	.	.	8b-\
=24	=24	=24	=24	=24	=24	=24	=24
4G\	2r	4r	4d/	4r	4.B-/	4g/	4b-\
4G\	.	4B-\	4d/	4G/	.	4g/	4b-\
.	.	.	.	.	8B-/	.	.
4.E-\	4r	4B-\	4.g/	4G/	4B-/	4.b-\	[2ee-\
.	4B-\	4B-\	.	4G/	4e-/	.	.
8E-\	.	.	8g/	.	.	8b-\	.
=25	=25	=25	=25	=25	=25	=25	=25
4E-\	4B-\	4.G/	4g/	4.E-/	4.B-/	4b-\	4ee-\]
4E-\	4B-\	.	4e-/	.	.	4g/	4b-\
.	.	8G/	.	8E-/	8c/	.	.
2BB-/	4.B-\	4D/	2d/	4B-\	8d/L	4.f/	8b-\L
.	.	.	.	.	8e-/J	.	8cc\
.	.	4D/	.	4F/	[4f/	.	8dd\
.	8B-\	.	.	.	.	8g/	8b-\J
=26	=26	=26	=26	=26	=26	=26	=26
2FF/	4A/	2F/	4c/	4F/	4f/]	4a/	4.cc\
.	4A/	.	2f/	4F/	4c/	4a/	.
.	.	.	.	.	.	.	8cc\
4.C/	4c\	4C/	.	4.G/	4.c/	4.g/	2cc\
.	4G/	[4c\	4e-/	.	.	.	.
8C/	.	.	.	8G/	8c/	8g/	.
=27	=27	=27	=27	=27	=27	=27	=27
2GG/	4.G/	8c\L]	4d/	2G/	2g/	4g/	1dd
.	.	8B-\J	.	.	.	.	.
.	.	4B-\	2g/	.	.	8d/L	.
.	8G/	.	.	.	.	8e/J	.
2D\	4A/	2A/	.	2D/	2r	8f#/L	.
.	.	.	.	.	.	8g/J	.
.	[4D/	.	4f#/	.	.	4a/	.
=28	=28	=28	=28	=28	=28	=28	=28
2GG/	4D/]	2B\	2g/	4G/	4r	4g/	4dd\
.	4D/	.	.	4G/	4B/	4d/	4g/
2r	2r	2r	2r	4C/	4c/	4e/	4g/
.	.	.	.	4C/	4c/	4e/	4g/
=29	=29	=29	=29	=29	=29	=29	=29
2r	2r	2r	2r	4.F/	4.c/	4.f/	4.a/
.	.	.	.	8C/	8c/	8e-/	8g/
4r	4r	4r	4r	4C/	4A/	4e-/	4g/
4D\	4D/	4A/	4d/	4D/	4A/	4d/	4f#/
=30	=30	=30	=30	=30	=30	=30	=30
4GG/	4D/	4B\	4d/	2G/	2G/	2d/	2g/
4GG/	4G/	4B\	4d/	.	.	.	.
4.C/	4.G/	4.c\	4.e/	2r	2r	2r	2r
8GG/	8G/	8B-\	8d/	.	.	.	.
=31	=31	=31	=31	=31	=31	=31	=31
4GG/	4E/	4B-\	4d/	1rr	4r	1rr	1rr
4AA/	4E/	4A/	4d-/	.	4A/	.	.
2D\	2D/	2F#/	4d/	.	4A/	.	.
.	.	.	4d/	.	4A/	.	.
=32	=32	=32	=32	=32	=32	=32	=32
2r	2r	4r	4d/	2G/	4.B/	4r	2r
.	.	4G/	4d/	.	.	4g/	.
.	.	.	.	.	16A/LL	.	.
.	.	.	.	.	16B/JJ	.	.
4r	4r	4G/	4.e/	4C/	[2c/	4g/	4r
4C/	4c\	4E/	.	4C/	.	4g/	4cc\
.	.	.	16d/LL	.	.	.	.
.	.	.	16e/JJ	.	.	.	.
=33	=33	=33	=33	=33	=33	=33	=33
4FF/	4c\	8A/L	2.f/	2.F/	4c/]	4.a/	4cc\
.	.	8G/	.	.	.	.	.
4FF/	4A/	8F/	.	.	4c/	.	4cc\
.	.	8E/J	.	.	.	16g/LL	.
.	.	.	.	.	.	16a/JJ	.
4.BB-/	4.B-\	4.D/	.	.	4.B-/	4.b-\	4.dd\
.	.	.	4f/	4F/	.	.	.
8FF/	8c\	8A/	.	.	8A/	8a/	8cc\
=34	=34	=34	=34	=34	=34	=34	=34
4FF/	4d\	4A/	4f/	4.D/	4d/	4a/	4cc\
4GG/	4G/	4D/	4d/	.	4d/	4g/	4b\
.	.	.	.	8G/	.	.	.
4C/	4G/	4E/	4c/	2E/	2G/	2g/	2cc\
4C/	4c\	4G/	4e/	.	.	.	.
=35	=35	=35	=35	=35	=35	=35	=35
4AA/	4c\	4A/	4f/	1rr	1rr	1rr	1rr
4AA/	4c\	4A/	4e/	.	.	.	.
2BB-/	4B-\	4F/	2d/	.	.	.	.
.	8A/L	8E/L	.	.	.	.	.
.	8G/J	8D/J	.	.	.	.	.
=36	=36	=36	=36	=36	=36	=36	=36
2AA/	2A/	2E/	2d-/	2A/	4r	4r	4r
.	.	.	.	.	4c#/	4e/	4a/
2r	2r	2r	2r	4D/	4d/	4f/	4b-\
.	.	.	.	4D/	4d/	4f/	4a/
=37	=37	=37	=37	=37	=37	=37	=37
1rr	1rr	1rr	1rr	2E-/	4B-/	4e-/	2g/
.	.	.	.	.	8A/L	8d/L	.
.	.	.	.	.	8G/J	8c/J	.
.	.	.	.	4D/	4A/	4d/	4f#/
.	.	.	.	[4G/	[4B/	[4d/	[4g/
=38	=38	=38	=38	=38	=38	=38	=38
1rr	1rr	1rr	1rr	4G/]	4B/]	4d/]	4g/]
.	.	.	.	4c\	4c/	4e/	4a/
.	.	.	.	4B-\	4.d/	4f/	4.b-\
.	.	.	.	4G/	.	4g/	.
.	.	.	.	.	8d/	.	8b-\
=39	=39	=39	=39	=39	=39	=39	=39
4r	4r	4r	4r	2A/	2c#/	2e/	2a/
2AA/	4E/	2A/	2c#/	.	.	.	.
.	4E/	.	.	2r	2r	2r	2r
4D\	[4F/	4A/	4d/	.	.	.	.
=40	=40	=40	=40	=40	=40	=40	=40
4BB-/	4F/]	4.B-\	4.d/	1rr	1rr	1rr	1rr
4GG/	4G/	.	.	.	.	.	.
.	.	8B-\	8d/	.	.	.	.
4D\	4F/	4A/	4d/	.	.	.	.
[4BB-/	[4B-\	[4d\	[4f/	.	.	.	.
=41	=41	=41	=41	=41	=41	=41	=41
4BB-/]	4B-\]	4d\]	4f/]	4r	4r	4r	4r
4BB-/	4B-\	4d\	4f/	2B-\	2f/	2b-\	2dd\
[2BB-/	2B-\	2d\	[2f/	.	.	.	.
.	.	.	.	4B-\	4f/	4b-\	4dd\
=42	=42	=42	=42	=42	=42	=42	=42
2BB-/]	4F/	2B-\	2f/]	4B-\	2d/	2b-\	2dd\
.	4F/	.	.	2F/	.	.	.
4FF/	[2c\	2r	4f/	.	4f/	4a/	4cc\
4FF/	.	.	4f/	4F/	4c/	4a/	4cc\
=43	=43	=43	=43	=43	=43	=43	=43
2C/	4c\]	4r	2e/	2G/	2c/	2g/	2cc\
.	4G/	4C/	.	.	.	.	.
[2GG/	2r	2G/	[2d/	4G/	4d/	4g/	4b-\
.	.	.	.	[4G/	[4d/	[4g/	[4b-\
=44	=44	=44	=44	=44	=44	=44	=44
2GG/]	1rr	2D/	2d/]	4G/]	4d/]	4g/]	4b-\]
.	.	.	.	4G/	4B-/	4d/	4g/
2r	.	2r	2r	2D/	2d/	2f/	4a/
.	.	.	.	.	.	.	[4b-\
=45	=45	=45	=45	=45	=45	=45	=45
2r	2r	2r	2r	2F/	2c/	2f/	4b-\]
.	.	.	.	.	.	.	4a/
4r	4r	4r	4r	2B-\	2B-/	2f/	2b-\
[4BB-/	[4d\	[4B-\	[4f/	.	.	.	.
=46	=46	=46	=46	=46	=46	=46	=46
4BB-/]	4d\]	4B-\]	4f/]	1rr	1rr	1rr	1rr
4C/	2c\	4G/	4e/	.	.	.	.
2F\	.	4A/	2f/	.	.	.	.
.	4d\	[4B-\	.	.	.	.	.
=47	=47	=47	=47	=47	=47	=47	=47
2F\	2c\	4B-\]	2f/	4r	2r	2r	2r
.	.	4A/	.	2F/	.	.	.
4BB-/	4B-\	4B-\	4f/	.	4r	4r	[2dd\
[4BB-/	[4B-\	[4d\	[4f/	4F/	4d/	[4b-\	.
=48	=48	=48	=48	=48	=48	=48	=48
*M3/2	*M3/2	*M3/2	*M3/2	*M3/2	*M3/2	*M3/2	*M3/2
4BB-/]	8B-\L]	4d\]	4f/]	2D/	4d/	4b-\]	4dd\]
.	8B-\J	.	.	.	.	.	.
4BB-/	4F/	4D/	4d/	.	4f/	4b-\	4dd\
2C/	4c\	4G/	4e/	2r	2e/	2g/	2cc\
.	4G/	8F/L	2g/	.	.	.	.
.	.	8E/J	.	.	.	.	.
2D\	2r	2A/	.	2D/	2d/	4f/	2a/
.	.	.	4f#/	.	.	4d/	.
=49	=49	=49	=49	=49	=49	=49	=49
*M3/4	*M3/4	*M3/4	*M3/4	*M3/4	*M3/4	*M3/4	*M3/4
2GG/	2.rr	2G/	2g/	2D/	2B/	2d/	2b\
4r	.	4r	4r	4r	4r	4r	4r
=50	=50	=50	=50	=50	=50	=50	=50
4.C/	4.G/	4c\	4.e/	2.rr	2.rr	2.rr	2.rr
.	.	4c\	.	.	.	.	.
8AA/	8A/	.	8f/	.	.	.	.
4BB-/	4F/	4B-\	4d/	.	.	.	.
=51	=51	=51	=51	=51	=51	=51	=51
8FF/	8F/	8A/	8c/	2.rr	2.rr	2.rr	2.rr
4F\	4A/	4c\	4f/	.	.	.	.
8C/	8G/	8c\	8e-/	.	.	.	.
4D\	4F#/	4A/	4d/	.	.	.	.
=52	=52	=52	=52	=52	=52	=52	=52
2.GG/	2.G/	2.B\	2.d/	2.rr	2.rr	2.rr	2.rr
=53	=53	=53	=53	=53	=53	=53	=53
2.rr	2.rr	2.rr	2.rr	4.d\	4.f#/	4.a/	4dd\
.	.	.	.	.	.	.	4dd\
.	.	.	.	8B\	8g/	8d/	.
.	.	.	.	4c\	4e/	4g/	4cc\
=54	=54	=54	=54	=54	=54	=54	=54
2.rr	2.rr	2.rr	2.rr	8G/	8d/	8g/	8b\
.	.	.	.	4c\	4e/	4g/	4cc\
.	.	.	.	8G/	8d/	8g/	8b-\
.	.	.	.	4A/	4d-/	4e/	[4a/
=55	=55	=55	=55	=55	=55	=55	=55
2.rr	2.rr	2.rr	2.rr	2.D/	2.d/	2.f#/	2.a/]
=56	=56	=56	=56	=56	=56	=56	=56
4.GG/	4.d\	4G/	4g/	4.G/	4.d/	4.g/	4.b\
.	.	4G/	4g/	.	.	.	.
8C/	8G/	.	.	8E/	8c/	8c/	8cc\
4FF/	4c\	4A/	4f/	4F/	4c/	4f/	4a/
=57	=57	=57	=57	=57	=57	=57	=57
4C/	4c\	4E/	4e/	8C/	8c/	8g/	8g/
.	.	.	.	4c\	4g/	4e/	4cc\
4r	4r	4r	4r	.	.	.	.
.	.	.	.	8G/	8g/	8d/	8b-\
4r	4r	4r	4r	4A/	4e/	4c#/	4a/
=58	=58	=58	=58	=58	=58	=58	=58
4.D\	4A/	4.A/	4.a/	2.D/	8f#/	8d/	8a/
.	.	.	.	.	4f#/	4d/	4dd\
.	4D/	.	.	.	.	.	.
8GG/	.	8d\	8g/	.	8g/	8b-\	8dd\
4D\	4D/	4d\	4f#/	.	4a/	4a/	4dd\
=59	=59	=59	=59	=59	=59	=59	=59
2GG/	2G/	2d\	2g/	2.rr	2g/	2b\	2dd\
4r	4r	4r	4r	.	4r	4r	4r
=60	=60	=60	=60	=60	=60	=60	=60
4.C/	4.G/	4c\	4.e/	2.rr	2.rr	2.rr	2.rr
.	.	4c\	.	.	.	.	.
8AA/	8A/	.	8f/	.	.	.	.
4BB-/	4F/	4B-\	4d/	.	.	.	.
=61	=61	=61	=61	=61	=61	=61	=61
8FF/	8F/	8A/	8c/	2.rr	2.rr	2.rr	2.rr
4F\	4A/	4c\	4f/	.	.	.	.
8C/	8G/	8c\	8e-/	.	.	.	.
4D\	4F#/	4A/	4d/	.	.	.	.
=62	=62	=62	=62	=62	=62	=62	=62
2.GG/	2.G/	2.B\	2.d/	2.rr	2.rr	2.rr	2.rr
=63	=63	=63	=63	=63	=63	=63	=63
2.rr	2.rr	2.rr	2.rr	4.d\	4.f#/	4.a/	4dd\
.	.	.	.	.	.	.	4dd\
.	.	.	.	8B\	8g/	8d/	.
.	.	.	.	4c\	4e/	4g/	4cc\
=64	=64	=64	=64	=64	=64	=64	=64
2.rr	2.rr	2.rr	2.rr	8G/	8d/	8g/	8b\
.	.	.	.	4c\	4e/	4g/	4cc\
.	.	.	.	8G/	8d/	8g/	8b-\
.	.	.	.	4A/	4c#/	4e/	4a/
=65	=65	=65	=65	=65	=65	=65	=65
2.rr	2.rr	2.rr	2.rr	2.D/	2.d/	2.f#/	2.a/
=66	=66	=66	=66	=66	=66	=66	=66
4.GG/	4.d\	4G/	4g/	4.G/	4.d/	4.g/	4.b\
.	.	4G/	4g/	.	.	.	.
8C/	8G/	.	.	8E/	8c/	8c/	8cc\
4FF/	4c\	4A/	4f/	4F/	4c/	4f/	4a/
=67	=67	=67	=67	=67	=67	=67	=67
4C/	4c\	4E/	4e/	8C/	8c/	8g/	8g/
.	.	.	.	4c\	4g/	4e/	4cc\
4r	4r	4r	4r	.	.	.	.
.	.	.	.	8G/	8g/	8d/	8b-\
4r	4r	4r	4r	4A/	4e/	4d-/	4a/
=68	=68	=68	=68	=68	=68	=68	=68
4.D\	4A/	4.A/	4.a/	2.D/	8f#/	8d/	8a/
.	.	.	.	.	4f#/	4d/	4dd\
.	4D/	.	.	.	.	.	.
8GG/	.	8d\	8g/	.	8g/	8b-\	8dd\
4D\	4D/	4d\	4f#/	.	4a/	4a/	4dd\
=69	=69	=69	=69	=69	=69	=69	=69
*met(C)	*met(C)	*met(C)	*met(C)	*met(C)	*met(C)	*met(C)	*met(C)
*M4/4	*M4/4	*M4/4	*M4/4	*M4/4	*M4/4	*M4/4	*M4/4
1GG	1G	1d	1g	4r	4g/	4b\	4dd\
.	.	.	.	2G/	2g/	2b\	2dd\
.	.	.	.	4G/	4g/	4b\	4dd\
=70	=70	=70	=70	=70	=70	=70	=70
4r	4r	4r	4r	2C/	2g/	2cc\	4.ee-\
2C/	2G/	2c\	2g/	.	.	.	.
.	.	.	.	.	.	.	8dd\
.	.	.	.	2G/	4e-/	2g/	8cc\L
.	.	.	.	.	.	.	8b-\J
4C/	4G/	4c\	4g/	.	4e-/	.	[4cc\
=71	=71	=71	=71	=71	=71	=71	=71
2GG/	4G/	2d\	2g/	4r	2d/	4r	4cc\]
.	4D/	.	.	2G/	.	2g/	4b-\
4C/	4r	2G/	4e-/	.	4.c/	.	4cc\
[4C/	[4G/	.	[4c/	4C/	.	4g/	[4ee-\
.	.	.	.	.	8d/	.	.
=72	=72	=72	=72	=72	=72	=72	=72
4C/]	4G/]	4r	4c/]	1G	4.e-/	4.g/	4ee-\]
4C/	4C/	2G/	4g/	.	.	.	4cc\
.	.	.	.	.	8d/	8f/	.
2C/	[2G/	.	2g/	.	2c/	8e-/L	2ee-\
.	.	.	.	.	.	8c/J	.
.	.	4C/	.	.	.	[4cc\	.
=73	=73	=73	=73	=73	=73	=73	=73
1GG	2G/]	2G/	1g	1G	1d	4cc\]	1dd
.	.	.	.	.	.	8b/L	.
.	.	.	.	.	.	8a/J	.
.	2D/	2G/	.	.	.	2b\	.
==	==	==	==	==	==	==	==
*-	*-	*-	*-	*-	*-	*-	*-
!!!ENC: Craig Stuart Sapp
!!!END: 2004/03/18/
